WordPressTheme/assets/images/common/5715187_fish_nature_ocean_sea_shark_icon 1sub-information-tab-name-2.svg

<svg width="63" height="63" viewBox="0 0 63 63" fill="none" xmlns="http://www.w3.org/2000/svg">
<path d="M34.5028 33.3605C34.4581 33.2014 34.3521 33.0666 34.2081 32.9855C34.0642 32.9044 33.8939 32.8838 33.7347 32.928C33.6337 32.9564 33.5323 32.984 33.4305 33.0107C33.3488 33.0291 33.2717 33.0638 33.2037 33.1126C33.1357 33.1615 33.0783 33.2236 33.0349 33.2951C32.9914 33.3667 32.9628 33.4462 32.9508 33.5291C32.9388 33.6119 32.9436 33.6963 32.9649 33.7773C32.9862 33.8582 33.0236 33.9341 33.0749 34.0002C33.1262 34.0664 33.1902 34.1216 33.2633 34.1624C33.3364 34.2033 33.4169 34.229 33.5001 34.2381C33.5834 34.2471 33.6676 34.2393 33.7477 34.2151C33.8559 34.1866 33.9634 34.1574 34.0703 34.1276C34.2292 34.0831 34.364 33.9773 34.4451 33.8335C34.5262 33.6897 34.5469 33.5196 34.5028 33.3605Z" fill="#408F95"/>
<path d="M61.0541 37.2302C58.4859 37.8711 55.795 37.8305 53.2473 37.1126C53.6608 35.8562 53.8967 34.5482 53.9481 33.2266C54.1208 28.5631 52.0234 24.714 47.8825 22.0952C45.9507 20.8879 43.8228 20.0276 41.5947 19.5533C40.4088 19.2965 39.2433 19.1207 38.3419 19.0065C38.536 18.2632 38.7791 17.5335 39.0697 16.8223C39.1183 16.7113 39.1335 16.5885 39.1135 16.469C39.0934 16.3495 39.039 16.2384 38.9567 16.1494C38.8745 16.0603 38.7682 15.9972 38.6506 15.9676C38.5331 15.9381 38.4095 15.9435 38.295 15.9831C35.312 17.0239 32.6826 18.8838 30.7077 21.3498C28.2393 21.6312 26.3176 22.6283 25.1489 24.2367C25.1443 24.2431 25.1391 24.2506 25.1346 24.2572C25.0125 24.4397 22.3069 28.3893 17.5834 27.9123C19.156 26.4485 22.005 23.2183 22.713 18.5048C23.6477 12.2857 21.9594 7.79125 20.8844 5.68408C22.8907 6.37838 26.5781 8.36788 28.2142 13.8385C28.2808 14.0881 29.0325 16.6809 31.9481 18.4192C32.0901 18.5038 32.2598 18.5285 32.4201 18.488C32.5803 18.4474 32.7179 18.3449 32.8025 18.2029C32.8871 18.0609 32.9119 17.8912 32.8713 17.7309C32.8308 17.5707 32.7282 17.4332 32.5863 17.3485C30.0477 15.8354 29.424 13.5385 29.4186 13.5179C29.4166 13.5094 29.4142 13.5007 29.4116 13.4922C26.8859 5.02962 19.9598 4.12872 19.6661 4.095C19.5461 4.08114 19.4246 4.10244 19.3165 4.1563C19.2084 4.21017 19.1182 4.29429 19.057 4.39843C18.9958 4.50257 18.9661 4.62225 18.9717 4.74292C18.9772 4.86359 19.0177 4.98006 19.0881 5.07817C19.1252 5.12875 22.6971 10.2225 21.4805 18.32C20.5892 24.2509 15.8514 27.7515 15.8043 27.7863C15.7083 27.8557 15.634 27.951 15.5902 28.0611C15.5464 28.1712 15.5348 28.2914 15.557 28.4078C15.5791 28.5242 15.6339 28.6319 15.715 28.7183C15.7962 28.8046 15.9002 28.866 16.015 28.8953C16.7734 29.0923 17.5536 29.1931 18.3371 29.1955C23.1327 29.1955 25.9599 25.2545 26.161 24.9645C26.937 23.8987 28.1012 23.1755 29.6286 22.8032C28.2225 24.9078 27.1744 27.2307 26.5269 29.6776C26.2774 30.6835 25.8562 31.6387 25.2818 32.5013C24.8967 33.0793 24.4365 33.6035 23.9132 34.0602C20.4201 34.0682 16.9305 33.8381 13.4687 33.3715C13.4598 33.3701 13.4509 33.369 13.442 33.3681C4.67762 32.4341 1.38661 37.1064 1.25079 37.3058C1.19763 37.3838 1.16289 37.4729 1.14918 37.5663C1.13548 37.6597 1.14317 37.755 1.17167 37.845C2.15909 40.9631 3.76025 43.8521 5.88092 46.3421C8.15003 50.3161 12.5239 53.4879 15.8036 55.4528C19.4826 57.6567 24.7748 58.9094 28.0123 58.9094C31.7604 58.9007 35.454 58.0111 38.7951 56.3124C39.9893 57.1143 42.0496 58.0673 45.1044 58.0673C46.4889 58.0571 47.8673 57.8829 49.2108 57.5485C49.3262 57.5204 49.4311 57.4599 49.5132 57.3743C49.5954 57.2887 49.6515 57.1814 49.6748 57.065C49.6982 56.9487 49.6878 56.828 49.645 56.7173C49.6022 56.6066 49.5288 56.5104 49.4332 56.44C49.4184 56.4291 47.9373 55.3218 46.7348 53.1008C46.6959 53.0288 46.6431 52.9651 46.5796 52.9135C46.5161 52.8618 46.443 52.8232 46.3646 52.7998C46.2861 52.7764 46.2038 52.7687 46.1224 52.7771C46.041 52.7855 45.962 52.8099 45.89 52.8489C45.818 52.8878 45.7544 52.9406 45.7027 53.0041C45.6511 53.0677 45.6125 53.1408 45.5892 53.2192C45.5658 53.2977 45.5582 53.38 45.5667 53.4614C45.5751 53.5428 45.5996 53.6218 45.6386 53.6938C46.2052 54.7471 46.9125 55.7185 47.7409 56.5812C44.035 57.2268 41.5447 56.4458 40.0697 55.6307C45.0608 52.7921 48.3685 48.8569 49.7606 46.9823C49.9998 46.9949 50.2435 47.0024 50.4918 47.0024C52.0623 47.0168 53.6192 46.7109 55.0674 46.1034C58.1394 44.7856 60.4119 42.0695 61.8214 38.0307C61.8592 37.9221 61.8662 37.8052 61.8417 37.6929C61.8173 37.5806 61.7622 37.4772 61.6826 37.3942C61.6031 37.3113 61.5021 37.2519 61.391 37.2227C61.2798 37.1935 61.1627 37.1956 61.0526 37.2287L61.0541 37.2302ZM28.0113 57.6635C25.5812 57.6635 19.9347 56.4751 16.4442 54.3838C13.3959 52.5576 9.37186 49.6625 7.17946 46.0912C8.28474 45.1927 12.1111 42.8033 18.3981 46.2746C18.5374 46.3487 21.8664 48.109 26.8583 48.9488C31.4135 49.715 38.2399 49.8061 45.0375 45.9672C46.0922 46.3745 47.1884 46.6653 48.3064 46.8342C45.6562 50.2067 38.5946 57.6635 28.0113 57.6635ZM54.5859 44.9559C50.1533 46.8633 45.3011 44.7291 45.2526 44.7072C45.1625 44.6657 45.0636 44.6467 44.9646 44.6518C44.8655 44.6569 44.7691 44.686 44.6837 44.7365C38.1338 48.5382 31.5106 48.4609 27.1078 47.7269C22.3061 46.9265 19.0185 45.1931 18.9934 45.1797C14.6598 42.787 11.3593 42.9944 9.35278 43.5895C8.29763 43.8963 7.3111 44.4026 6.44663 45.0809C4.70525 42.8956 3.3566 40.4245 2.46076 37.7778C3.21176 36.8924 6.32489 33.8657 13.2969 34.605C13.8565 34.6885 23.1626 36.0384 31.0261 34.7825C31.1873 34.7542 31.3308 34.6636 31.4258 34.5304C31.5208 34.3971 31.5596 34.2318 31.5338 34.0702C31.508 33.9086 31.4197 33.7637 31.2879 33.6666C31.1561 33.5696 30.9915 33.5283 30.8295 33.5516C29.1282 33.8124 27.4126 33.9698 25.6922 34.023C25.9134 33.7594 26.1209 33.4845 26.3137 33.1995C26.9684 32.2184 27.4489 31.1316 27.7341 29.9871C28.2984 27.7939 30.6073 20.7314 37.4263 17.6672C36.5419 20.3659 35.1885 26.4196 39.4116 29.6569C38.6606 30.6182 37.561 31.4301 36.1154 32.0811C36.0407 32.1147 35.9735 32.1627 35.9174 32.2223C35.8613 32.2819 35.8175 32.3519 35.7885 32.4284C35.7595 32.505 35.7459 32.5865 35.7484 32.6683C35.7509 32.7501 35.7694 32.8306 35.8031 32.9052C35.8367 32.9798 35.8846 33.0471 35.9442 33.1031C36.0038 33.1592 36.0739 33.203 36.1504 33.232C36.2269 33.261 36.3084 33.2747 36.3902 33.2722C36.472 33.2697 36.5525 33.2511 36.6271 33.2175C39.4419 31.9501 41.1411 30.1077 41.6772 27.7413C41.6794 27.7319 41.6814 27.7228 41.6829 27.7128C41.7014 27.6112 42.0987 25.2009 39.6919 23.2894C39.5624 23.1866 39.3974 23.1395 39.2332 23.1583C39.069 23.1772 38.9189 23.2605 38.8161 23.39C38.7133 23.5194 38.6661 23.6844 38.685 23.8487C38.7038 24.0129 38.7872 24.1629 38.9166 24.2657C40.6716 25.6592 40.4794 27.3301 40.4574 27.4849C40.3692 27.8665 40.2402 28.2375 40.0725 28.5914C37.466 26.4913 37.534 22.8942 38.0576 20.2276C38.9496 20.3379 40.1359 20.5128 41.3394 20.7739C41.346 20.7755 41.3536 20.777 41.3605 20.7783C43.4453 21.2311 45.4365 22.0397 47.2467 23.1686C51.0234 25.5697 52.8585 28.9381 52.7012 33.1802C52.6547 34.3784 52.4417 35.5642 52.0685 36.7036C51.5886 36.5093 51.1216 36.2847 50.6702 36.0312C50.5261 35.9501 50.3557 35.9296 50.1964 35.9741C50.0372 36.0187 49.9022 36.1247 49.8211 36.2688C49.74 36.4129 49.7195 36.5834 49.7641 36.7426C49.8086 36.9018 49.9146 37.0368 50.0588 37.1179C54.085 39.3802 58.2526 39.045 60.236 38.6907C58.9429 41.792 57.0453 43.8971 54.5859 44.9555V44.9559Z" fill="#408F95"/>
<path d="M19.7411 38.1344L18.9926 38.4341C18.9161 38.4642 18.8464 38.5091 18.7874 38.5662C18.7284 38.6233 18.6812 38.6915 18.6487 38.767C18.6161 38.8424 18.5988 38.9235 18.5977 39.0056C18.5966 39.0877 18.6118 39.1693 18.6423 39.2455C18.6728 39.3218 18.7181 39.3912 18.7756 39.4499C18.8331 39.5086 18.9016 39.5554 18.9772 39.5875C19.0528 39.6196 19.134 39.6364 19.2161 39.637C19.2983 39.6376 19.3797 39.622 19.4558 39.591L20.2044 39.2914C20.2808 39.2613 20.3505 39.2164 20.4096 39.1593C20.4686 39.1022 20.5157 39.0339 20.5483 38.9585C20.5808 38.8831 20.5981 38.802 20.5992 38.7199C20.6003 38.6378 20.5852 38.5562 20.5546 38.48C20.5241 38.4037 20.4788 38.3342 20.4213 38.2756C20.3639 38.2169 20.2953 38.1701 20.2197 38.138C20.1441 38.1059 20.0629 38.0891 19.9808 38.0885C19.8987 38.0878 19.8172 38.1035 19.7411 38.1344Z" fill="#408F95"/>
<path d="M32.4096 39.1187C32.4746 38.9686 32.478 38.799 32.419 38.6464C32.3601 38.4938 32.2435 38.3705 32.0945 38.3031C31.9455 38.2357 31.7759 38.2295 31.6224 38.286C31.4689 38.3425 31.3437 38.457 31.2739 38.6049C31.2163 38.7317 29.891 41.7364 32.2459 44.2444C32.3633 44.3573 32.5183 44.4227 32.6811 44.4279C32.8439 44.433 33.0028 44.3775 33.127 44.2721C33.1867 44.2162 33.2349 44.149 33.2686 44.0744C33.3023 43.9998 33.321 43.9193 33.3236 43.8375C33.3262 43.7556 33.3126 43.6741 33.2836 43.5976C33.2547 43.521 33.2109 43.4509 33.1548 43.3913C31.3827 41.5039 32.3643 39.2207 32.4096 39.1187Z" fill="#408F95"/>
<path d="M35.962 38.4285C36.0302 38.278 36.0357 38.1065 35.9775 37.9518C35.9192 37.7971 35.8018 37.672 35.6513 37.6038C35.5007 37.5356 35.3292 37.5301 35.1745 37.5884C35.0199 37.6466 34.8947 37.764 34.8265 37.9145C34.7691 38.0413 33.4437 41.046 35.7988 43.554C35.9216 43.6848 36.4473 43.7793 36.6798 43.5818C36.7407 43.5265 36.7899 43.4595 36.8244 43.3849C36.8588 43.3102 36.8779 43.2294 36.8805 43.1472C36.8831 43.065 36.8692 42.9831 36.8395 42.9065C36.8097 42.8298 36.7649 42.7599 36.7076 42.7009C34.9362 40.8144 35.9161 38.5327 35.962 38.4285Z" fill="#408F95"/>
<path d="M39.1683 37.0999C39.2334 36.9498 39.2368 36.7802 39.1778 36.6276C39.1189 36.475 39.0023 36.3517 38.8533 36.2843C38.7043 36.2169 38.5347 36.2107 38.3812 36.2672C38.2277 36.3237 38.1025 36.4382 38.0327 36.5861C37.975 36.7129 36.6498 39.7176 39.0047 42.2257C39.1274 42.3566 39.6486 42.4666 39.8856 42.2535C39.9459 42.1979 39.9944 42.1308 40.0285 42.0562C40.0625 41.9815 40.0814 41.9009 40.084 41.8189C40.0866 41.7369 40.0728 41.6553 40.0435 41.5786C40.0143 41.502 39.97 41.432 39.9134 41.3726C38.1405 39.4843 39.1242 37.1993 39.1683 37.0999Z" fill="#408F95"/>
</svg>

<svg width="63" height="63" fill="none" xmlns="http://www.w3.org/2000/svg"><path d="M34.503 33.36a.624.624 0 00-.768-.432l-.304.083a.624.624 0 10.317 1.204c.108-.028.215-.058.322-.087a.623.623 0 00.433-.767z" fill="#408F95"/><path d="M61.054 37.23c-2.568.641-5.259.6-7.807-.117a14.17 14.17 0 00.701-3.886c.173-4.664-1.925-8.513-6.066-11.132a19.541 19.541 0 00-6.287-2.542 38.634 38.634 0 00-3.253-.547c.194-.743.437-1.473.728-2.184a.624.624 0 00-.775-.839 16.819 16.819 0 00-7.587 5.367c-2.469.281-4.39 1.278-5.56 2.887a1.06 1.06 0 00-.013.02c-.123.183-2.828 4.132-7.552 3.655 1.573-1.463 4.422-4.694 5.13-9.407.935-6.22-.754-10.714-1.829-12.82 2.007.693 5.694 2.683 7.33 8.154.067.25.819 2.842 3.734 4.58a.624.624 0 00.638-1.07c-2.538-1.514-3.162-3.81-3.167-3.831a.409.409 0 00-.007-.026C26.886 5.03 19.96 4.13 19.666 4.095a.624.624 0 00-.578.983c.037.05 3.61 5.144 2.392 13.242-.89 5.93-5.629 9.431-5.676 9.466a.624.624 0 00.211 1.11 9.35 9.35 0 002.322.3c4.796 0 7.623-3.942 7.824-4.232.776-1.065 1.94-1.788 3.468-2.16a22.937 22.937 0 00-3.102 6.874 9.006 9.006 0 01-1.245 2.823 7.835 7.835 0 01-1.369 1.56 76.873 76.873 0 01-10.471-.693c-8.764-.934-12.055 3.738-12.191 3.938a.623.623 0 00-.08.539 24.523 24.523 0 004.71 8.497c2.269 3.974 6.643 7.146 9.923 9.11 3.679 2.205 8.97 3.457 12.208 3.457a23.914 23.914 0 0010.783-2.597c1.194.802 3.255 1.755 6.31 1.755a17.536 17.536 0 004.106-.519.623.623 0 00.222-1.108c-.015-.01-1.496-1.118-2.698-3.34a.623.623 0 10-1.096.594 13.192 13.192 0 002.102 2.887c-3.706.646-6.196-.135-7.671-.95 4.99-2.839 8.298-6.774 9.69-8.649.24.013.483.02.732.02 1.57.015 3.127-.291 4.575-.899 3.072-1.317 5.345-4.034 6.754-8.072a.623.623 0 00-.768-.802l.001.001zM28.011 57.664c-2.43 0-8.076-1.189-11.567-3.28-3.048-1.826-7.072-4.721-9.265-8.293 1.106-.898 4.932-3.288 11.22.184.138.074 3.467 1.834 8.46 2.674 4.554.766 11.38.857 18.178-2.982 1.055.407 2.151.698 3.27.867-2.65 3.373-9.712 10.83-20.296 10.83zm26.575-12.708c-4.433 1.907-9.285-.227-9.333-.249a.613.613 0 00-.57.03c-6.55 3.801-13.172 3.724-17.575 2.99-4.802-.8-8.09-2.534-8.115-2.547-4.333-2.393-7.634-2.186-9.64-1.59a8.596 8.596 0 00-2.906 1.49 24.135 24.135 0 01-3.986-7.302c.75-.886 3.864-3.912 10.836-3.173.56.084 9.866 1.433 17.73.178a.623.623 0 00-.198-1.231c-1.7.26-3.416.418-5.137.471.221-.264.429-.539.622-.824a10.254 10.254 0 001.42-3.212c.564-2.193 2.873-9.256 9.692-12.32-.884 2.699-2.238 8.753 1.986 11.99-.751.961-1.851 1.773-3.297 2.424a.623.623 0 10.512 1.136c2.815-1.267 4.514-3.11 5.05-5.476a.35.35 0 00.006-.028c.018-.102.416-2.512-1.991-4.424a.624.624 0 00-.775.977c1.755 1.393 1.562 3.064 1.54 3.219a5.45 5.45 0 01-.385 1.106c-2.606-2.1-2.538-5.697-2.014-8.363a37.608 37.608 0 013.303.55 18.573 18.573 0 015.886 2.39c3.776 2.402 5.611 5.77 5.454 10.012a12.93 12.93 0 01-.633 3.524c-.48-.195-.946-.42-1.398-.673a.624.624 0 00-.611 1.087c4.026 2.262 8.194 1.927 10.177 1.573-1.293 3.101-3.19 5.206-5.65 6.264z" fill="#408F95"/><path d="M19.741 38.134l-.748.3a.623.623 0 10.463 1.157l.748-.3a.625.625 0 00.35-.811.62.62 0 00-.813-.346zm12.669.985a.623.623 0 00-1.136-.514c-.058.127-1.383 3.131.972 5.64a.658.658 0 00.881.027.621.621 0 00.028-.88c-1.772-1.888-.79-4.171-.745-4.273zm3.552-.691a.623.623 0 10-1.136-.514c-.057.127-1.382 3.132.973 5.64.123.13.648.225.88.028a.614.614 0 00.029-.881c-1.772-1.887-.792-4.168-.746-4.273zm3.206-1.328a.623.623 0 00-1.135-.514c-.058.127-1.383 3.132.972 5.64.122.13.644.24.88.028a.617.617 0 00.028-.881c-1.772-1.889-.789-4.174-.745-4.273z" fill="#408F95"/></svg>
